X:1
T:D minor             Barnabas McKyes, 1798
T:The New England Primer , 1690 88. 88. (L. M.)
T:Preparation
T:Transcribed from Benham's Social Harmony, 1798.
%%score [ 1 2 3 4 ]
L:1/8
Q:1/4=120
M:4/4
K:F
V:1 treble nm="Tr." snm="Tr."
V:2 treble nm="C." snm="C."
V:3 treble-8 nm="T." snm="T."
V:4 bass nm="B." snm="B."
V:1
 A4 | (A4 d2) d2 | (d3 c d2) f2 | e2 e2 A2 A2 | c2 c2 d2 AB | c4 A4 | A8 | A4 A2 A2 | A6 c2 | %9
w: |||||||||
 d2 d2 d2 fe | (d>edc AB c2 | d6) z2 | z4 z2 fd | e6 dc | A6 AG | A8 |] %16
w: * * * Thy *|sleep,~ _ _ _ _ _ _|_|thy *|death, thy *|bed, thy *|grave.|
V:2
 D4 | A6 A2 | A6 A2 | c2 c2 cA F2 | E2 E2 D2 D2 | A4 A4 | A8 | A4 F2 D2 | E6 E2 | F2 A2 A2 F2 | %10
w: A-|wake, a-|rise, be-|hold thou hast * Thy|life a leaf, thy|breath a|blast;|At night lie|down pre-|–pared to have Thy|
 (G3 A GE F2 | A6) z2 | z4 z2 F2 | C6 (3DEF | D6 ^C2 | D8 |] %16
w: sleep,~ _ _ _ _|_|thy|death, thy * *|bed, thy|grave.|
V:3
 D4 | (F2 A4) A2 | (d3 e f2) f2 | c2 c2 c2 d2 | A2 AG A2 f2 | (e3 d) c4 | d8 | d4 A2 F2 | E6 G2 | %9
w: |||||||||
 A2 A2 A2 c2 | (d>cde d2 FG | A6) fd | e6 dc | A6 BG | F6 GE | D8 |] %16
w: * * * Thy|sleep,~ _ _ _ _ _ _|_ thy *|death, thy *|death, thy *|bed, thy *|grave.|
V:4
 D,4 | D,6 D,2 | (D,3 A, F,2) F,2 | C2 A,2 F,2 D,2 | A,2 A,,2 D,2 F,2 | A,4 A,,4 | D,8 | %7
w: |||||||
 D,4 D,2 D,2 | A,,6 E,2 | D,2 D,2 D,2 A,2 | %10
w: ||* * * Thy|
"^____________________________________________\nEdited by B. C. Johnston, 2017\nMeasure 12, \nTreble\n and \nCounter\n: note changed from whole \n     note to dotted half-note, to better reveal the Tenor line." (G,6 F,>E, | %11
w: sleep,~ _ _|
 D,8 | A,6) F,D, | A,,6 C,2 | D,6 A,,2 | D,8 |] %16
w: _|* thy *|death, thy|bed, thy|grave.|

